X: 1
T: Caprice sur la Romance de Joconde
C: Maria Szymanowska
%%abc-version 2.0
%%abcx-abcm2ps-target-version 5.9.1 (29 Sep 2008)
%%abc-creator hum2abc beta
%%abcx-conversion-date 2021/10/04 07:38:40
%%abc-edited-by Marta Chmielewska
%%abc-edited-by Anastazja Marusiak
%%abcx-initial-encoding-date 2021-08-10
%%humdrum-veritas 3230235106
%%humdrum-veritas-data 3177980390
%%linebreak <none>
%%barnumbers 0
L: 1/16
M: 6/8
N: Derived from pl-kozmzk--mzk-m-124_szymanowska-maria--caprice-sur-la-romance-de-joconde.krn
%%staves {1 2}
V: 1 clef=treble
V: 2 clef=bass
K: E
[V:1] E2G2B2!accent![G4e4][B2d2] | 
[V:2] z4z2[E,,6E,6] | 
[V:1] [B6d6][A4c4]z2 | 
[V:2] [A,,12A,12] | 
[V:1] D2F2A2!accent![A4c4][G2B2] | 
[V:2] z4z2[B,,,6B,,6] | 
[V:1] !accent![F4B4]A2[E4G4]z2 & B,6-B,4z2 | 
[V:2] [D,,4D,4]>[E,,4E,4]!wedge!B,,2!wedge!A,,2 | 
[V:1] [E2G2][G2B2][B2e2] [e2g2][d2f2]!wedge![c2e2] | 
[V:2] E,,4z2!accent!E,,4z2 | 
[V:1] [c2e2][B2d2]!wedge![A2c2] [A2c2][G2B2]!wedge![F2A2] | 
[V:2] A,,4z2!accent!A,,4z2 | 
[V:1] !wedge![E2G2]!wedge![F2A2]!wedge![G2B2] !wedge![F2A2]!wedge![E2G2]!wedge![B,2F2] | 
[V:2] B,,4z2B,,,4z2 | 
[V:1] !wedge![G,2E2]B,2G2E4z2 | 
[V:2] [E,,2E,2]B,,2G,,2E,,4z2 | 
[V:1] B,2E2G2B4B2 | 
[V:2] G,,2B,,2E,2 G,2B,2E2 & E,,6E,6 | 
[V:1] !turn!B2>c2d{/f}eB4A2 | 
[V:2] G,2B,2E2 G,2B,2E2 & E,6E,6 | 
[V:1] {/A} G2F2G2 {/AB} c2>B2A2 | 
[V:2] E,2G,2C2 C,2E,2A,2 & C,6A,,6 | 
[V:1] AG^^FG!accent!AG=F4z2 | 
[V:2] E,2G,2B,2 D,2F,2B,2 & B,,6B,,6 | 
[V:1] B4B2!trill!^B6{/^AB} | 
[V:2] B,,2[B,2D2][B,2D2] G,,2 [G,2D2F2][G,2D2F2] | 
[V:1] c4c2 !turn!c2>d2e2 | 
[V:2] C,2 [G,2C2E2][G,2C2E2] E,,2 [E,2G,2C2][E,2G,2C2] | 
[V:1] !accent!^^c/d/e/d/ !accent!^a/b/^c'/b/ !accent!^^c'/d'/e'/d'/ [|] 
[V:2] F,,2 [F,2B,2D2][F,2B,2D2] [|] 
[V:1] (3:2:12^^c'/b/^a/g/f/e/ d/^^c/B/^A/G/F/ ^E//F//^^G//F//^G//F//^A//F// [I:setbarnb 16]| 
[V:2] F,,2 [F,2^A,2C2E2][F,2A,2C2E2] | 
[V:1] B6-B4B2 | 
[V:2] B,,D,F,B,F,D, B,,D,F,B,F,D, & B,,4x2B,,4x2 | 
[V:1] {/=d} =c2B2c2 {/cd} !accent!e2>=d2c2 | 
[V:2] B,,E,=G,=CG,E, B,,E,G,CG,E, & B,,4x2B,,4x2 | 
[V:1] !accent!=c6B4z2 | 
[V:2] B,,D,F,=CF,D, B,,D,F,B,F,D, & B,,4x2B,,4x2 | 
[V:1] !wedge!=c B,=CDEF =GB (3c=de (3edc | 
[V:2] B,,E,=G,=CG,E, B,,E,G,CG,E, & B,,4x2B,,4x2 | 
[V:1] !accent!=c6B4z2 | 
[V:2] B,,D,F,=CF,D, B,,D,F,B,F,D, & B,,4x2B,,4x2 | 
[V:1] !trill!^A6A4{/GA} !accent!=gA | 
[V:2] B,,=C,E,^A,E,C, B,,C,E,A,E,C, & B,,4x2B,,4x2 | 
[V:1] B2 F2G2 =A2G2F2 | 
[V:2] [B,,2B,2] D2E2 F2E2B,2 | 
[V:1] E2G2B2!accent!e4d2 | 
[V:2] E,,2 [G,2B,2E2][G,2B,2E2] [G,2B,2E2][G,2B,2E2][G,2B,2E2] | 
[V:1] d6c4z2 | 
[V:2] A,,2 [A,2D2][A,2D2] [A,2C2][A,2C2][A,2C2] | 
[V:1] D2F2 {/A} ag (3:2:18f/g/f/e/f/e/ d/e/d/c/d/c/ B/c/B/A/B/A/ | 
[V:2] B,,,2 [D,2F,2B,2][D,2F,2B,2] D,,2 [D,2F,2B,2][D,2F,2B,2] | 
[V:1] !accent!^^F6G4z2 | 
[V:2] E,,2 [E,2G,2B,2][E,2G,2B,2] [E,2G,2B,2][E,2G,2B,2][E,2G,2B,2] | 
[V:1] G2B2e2 {/ef} !accent!g2f2e2 | 
[V:2] G,,2 [G,2B,2E2][G,2B,2E2] [G,2B,2E2][G,2B,2E2][G,2B,2E2] | 
[V:1] !accent!f2>e2dc dcBA!trill!GF | 
[V:2] A,,2 [A,2C2F2][A,2C2F2] [A,2C2F2][A,2C2F2][A,2C2F2] | 
[V:1] c2B2B2 !turn!B3B/c/d/e/f/g/ | 
[V:2] B,,2 [E2G2][E2G2] A,,2 [D2F2A2][D2F2A2] | 
[V:1] a2-a/g/f/e/d/e/f/e/ (3:2:18d/c/^B/c/d/c/ =B/A/G/A/B/A/ G/F/^E/F/!accent!a/f/ | 
[V:2] G,,2 [G,2B,2E2][G,2B,2E2] A,,2 [A,2C2F2][A,2C2F2] | 
[V:1] {/B} b2 {/b} b'2(7:4:7^a'/=a'/g'/f'/e'/d'/c'/ b//^a//=a//g//f//e//d//c// B//^A//=A//G//F//E//D//C// B,/A,/F,/G,/ | 
[V:2] B,,2 [B,2E2G2][B,2E2G2] B,,2[K:clef=treble] [B,FA] z[K:clef=bass] [B,,F,A,] z | 
[V:1] E,2 B2!turn!e2 !accent!g2e2!turn!B2 | 
[V:2] E,,4z2!arpeggio![E,4G,4B,4E4]z2 | 
[V:1] !accent!e2>B2!turn!G2 !wedge!e2!wedge!B2!wedge!G2 | 
[V:2] !arpeggio![E,,4G,,4B,,4E,4]z2 !wedge!E2!wedge!B,2!wedge!G,2 | 
[V:1] E/B,/E/G/ !wedge!B/E/G/B/ !wedge!e/G/B/e/ g/B/e/g/ b/e/g/b/ e'/g/b/g'/ | 
[V:2] E,4z2z4z2 | 
[V:1] e'4z2z4!fermata!z2 ||  
[V:2] z4B,,2E,,4!fermata!z2 ||  
[V:1] B,2E2G2B4B2 & G,E,B,G,EB, GEDEGE | 
[V:2] {/D,,}E,,6{/D,,}E,,4{/D,,} E,,2 | 
[V:1] B4e2B4A2 & GEDEGE GB,^A,B,FB, | 
[V:2] {/D,,} E,,2>G,,2A,,^A,,2< B,,2!wedge!C,!wedge!D,!wedge!B,, | 
[V:1] G4G2 A2B2c2 & EB,^A,B,EC FCGC^AC | 
[V:2] E,4C,2 !wedge!A,,2!wedge!G,,2!wedge!F,,2 | 
[V:1] G4!accent!=AGF4!accent!dc & EB,^A,B, E2 DB,^A,B, F2 | 
[V:2] B,,6B,,,4z2 | 
[V:1] [D2B2][D2B2][F2d2] [D2^B2][D2B2][F2d2] | 
[V:2] B,,F,,D,B,,F,D, F,D,G,F,^B,G, & D,,2F,,2B,,2 [G,,2^B,,2][B,,2D,2][D,2F,2] | 
[V:1] [E4c4][E2c2] [E2c2][F2d2][G2e2] | 
[V:2] !arpeggio![C,E,G,C] E,,G,,C,E,G, CG,E,C,G,,E,, | 
[V:1] {/F/B/} edcB^AG F2G2[E2F2c2] | 
[V:2] {/F,,,} !wedge!F,, F,,G,,^A,,B,,C, D, E,,D,,C,,^A,,,F,,, | 
[V:1] [DFB] ^ab x x ^^cd x x ^EFD | 
[V:2] B,,, x x ^ef x x ^AB x x2 | 
[V:1] E=GB z EG {/cd} e2=d2=c2 | 
[V:2] [B,,2B,2] z =c z2 E=GcEGc | 
[V:1] DF=cDFc DFBDFB | 
[V:2] {/B,,}=C6D,^A,B,!wedge!D,F,B, | 
[V:1] E=GB z EG2< {/cd} e2=dc2 | 
[V:2] [B,,2B,2] z =c z2 EGcEGc | 
[V:1] DF=cDFc DFBDFB | 
[V:2] {/B,,}=C6B,,^A,B,!wedge!^E,F,D, | 
[V:1] =CE^ACEA CEACEA | 
[V:2] B,, B,,,B,,=C,E,G, ^A,2 e2^a2 | 
[V:1] [B,2B2][D2F2][E2G2] [F2=A2][E2G2][B,2F2] | 
[V:2] !trill!b12{/^a/b/c'/b/} | 
[V:1] DEGB !arpeggio![EBe]d[E4A4d4]c2 | 
[V:2] e2 z2 [G,,2G,2] A,,C,E,A,DC | 
[V:1] ^A,B,DF !arpeggio![B,Fc]B[B,4D4A4]G2 | 
[V:2] z4[D,,2D,2] E,,G,,B,,E,!accent!=A,G, | 
[V:1] DEGB !arpeggio![EBf]e !arpeggio![EAd]c !arpeggio![CFB]A !arpeggio![A,CG]F | 
[V:2] z4[G,,2G,2][A,,4A,4]A,,2 | 
[V:1] [EGc]B [B,GB]F [A,DG]F [A,2D2F2][G,2B,2E2] z2 | 
[V:2] x6!wedge!E,,D,E,!wedge!^A,,B,,G,, | 
[V:1] B,C^EG!accent!=dc[C4F4B4]A2 | 
[V:2] [C,,6C,6]F,,A,,C,F,!accent!=CB, | 
[V:1] ^A,B,DF !accent!!arpeggio![B,Fc]B[B,4D4A4]G2 | 
[V:2] z4[D,,2D,2] E,,G,,B,,E,!accent!A,G, | 
[V:1] (3DEG B!accent!!arpeggio![EBg]fe [EAd]c [CFB]A [A,CG]F | 
[V:2] G,,4[G,,2G,2][A,,4A,4]A,,2 | 
[V:1] [Gc]B [GB]E [EG]B,[D4A4][A,2D2] & E2 B,2 G,2 x2x4 | 
[V:2] B,,4B,,,2B,,4[B,,2F,2] | 
[V:1] [G,2E2]G2B2 (3e b^a (3bg^^f (3g^fe | 
[V:2] E,,2 [G,2B,2E2][G,2B,2E2] [G,2B,2E2][G,2B,2E2][G,2B,2E2] | 
[V:1] d6c4z2 | 
[V:2] A,,2 [A,2D2][A,2D2] [A,2C2][A,2C2][A,2C2] | 
[V:1] {/fg} (3a'g'f' (3!wedge!e'd'c' (3bag (3!wedge!fed (3c{/c/}B^A (3Bc=A | 
[V:2] B,,,2 [D,2F,2B,2][D,2F,2B,2] D,,2 [D,2F,2B,2][D,2F,2B,2] | 
[V:1] !accent!^^F6G4z2 | 
[V:2] E,,2 [E,2G,2B,2][E,2G,2B,2] [E,2G,2B,2][E,2G,2B,2][E,2G,2B,2] | 
[V:1] !accent!B2 !accent!e2 !accent!g2 b2 [ge'][bg'][af'][ge'] & DE ^^FG ^AB dex4 | 
[V:2] [G,,4G,4]!arpeggio![G,2B,2E2][G,,4G,4]!arpeggio![G,2B,2E2] | 
[V:1] [fd']!accent![c^ec'][fa][Bdb][=eg][EBe] d[Ac]B[FA]G[CF] & x4>F4C2A,2 | 
[V:2] A,[K:clef=treble] [CGB][FA][B,FA][EG][K:clef=bass][G,,G,][A,,4A,4]A,,2 | 
[V:1] [E4G4B4][E2G2B2] [E2G2B2][F2A2][D2F2] & ^A,B,A,B,A,B, A,B,=CB,=A,B, ||  
[V:2] [B,,,4B,,4][B,,,2B,,2][B,,,4B,,4][B,,,2B,,2] ||  
[V:1]  [K:G] G,2>B,2EGB4B2 | 
[V:2]  [K:G] G,,2B,,2E,2 G,2B,2E2 & E,,6E,6 | 
[V:1] !turn!B3e//g//f//a//g//e//B//^A//c//B//G// x//F4E2 | 
[V:2] G,2B,2E2 E,2G,2B,2 & E,6E,6 | 
[V:1] E2F2G2 F2-F/G/A/B/d/c/!accent!C/F/ | 
[V:2] E,2G,2C2 C,2F,2A,2 & C,6A,,6 | 
[V:1] E6^D4z2 | 
[V:2] E,2G,2B,2 ^D,2F,2A,2 & B,,6B,,6 | 
[V:1] B4B2!trill!^c6{/Bc} | 
[V:2] [B,,2B,2] [B,2D2][B,2D2] [^F,,2^F,2] [F,2^A,2^C2E2][F,2A,2C2E2] | 
[V:1] !accent!e4d2 ^c/e/c/g/c/^c'/c/e'/c/g'/c/^a'/- | 
[V:2] [G,,2G,2] [B,2D2][B,2D2] [E,,2E,2] [E,2G,2^C2][E,2G,2C2] | 
[V:1] a'/b'/^e'/f'/^c'/=e'/d'/^a/c'/b/^e/f/ g/^c/g/^A/g/G/g/E/f/^C/=e/^A,/ | 
[V:2] F,2 [F,2B,2D2][F,2B,2D2] F,,2 !arpeggio![F,2^A,2^C2E2] !arpeggio![^F,,2^A,,2^C,2E,2] | 
[V:1] B,4z2z4B2 | 
[V:2] B,,D,F,B,F,D, B,,D,F,B,F,D, & B,,6B,,6 | 
[V:1] c {/D} C/B,/ C/E/G/c/ e/g/c'/{/d}c//B// c/e/g/c'/e'/g'/c''/b'/c''/g'/e'/c'/ | 
[V:2] B,,E,G,CG,E, B,,E,G,CG,E, & B,,6B,,6 | 
[V:1] !accent!c'6b4z2 | 
[V:2] B,,^D,F,CF,D, B,,D,F,B,F,D, & B,,6B,,6 | 
[V:1] c'/g/{/a/}!accent!g/f/ g/e/{/f/}!accent!e/^d/ e/c/{/=d/}!accent!c/B/ c/G/{/A/}!accent!G/F/ G/E/{/F/}E/^D/ E=D/C/ | 
[V:2] B,,E,G,CG,E, B,,E,G,CG,E, & B,,6B,,6 | 
[V:1] !accent!C6B,4z2 | 
[V:2] B,,^D,F,C,F,D, B,,D,F,B,F,D, & B,,6B,,6 | 
[V:1] ^A,2 [E2^A2e2][E2A2^f2] [E2A2g2][E2A2f2][E2A2e2] | 
[V:2] C,,/C,/C,,/C,/C,,/C,/C,,/C,/C,,/C,/C,,/C,/C,,/C,/C,,/C,/C,,/C,/C,,/C,/C,,/C,/C,,/C,/ | 
[V:1] [^DB^d]B, !wedge![^d^f]B, !wedge![eg]B, !wedge![fa]B, !wedge![eg]B, !wedge![df]!fermata!B, | 
[V:2] B,,,/B,,/B,,,/B,,/B,,,/B,,/B,,,/B,,/B,,,/B,,/B,,,/B,,/B,,,/B,,/B,,,/B,,/B,,,/B,,/B,,,/B,,/B,,,/B,,/B,,,/B,,/ | 
[V:1] ^D,E,G,B,EG (3BEe (3:2:9=d/c/A/^G/A/c/ e!accent!Aa | 
[V:2] E,,4!accent!G,,2A,,4!accent!C,2 | 
[V:1] (3=f {/E} D^C(3D=FA (3dDg (3e {/D} =CB,(3CEA (3cA,f | 
[V:2] D,4!accent!B,,2C,4!accent!A,,2 | 
[V:1] (3d {/C/} B,^A,(3B,E^G (3BB,e (3c {/=F/} E^D (3E=dc (3D[=Fc]B | 
[V:2] B,,4^G,,2A,,4!accent!D,2 | 
[V:1] (3C {/D/} CB, (3!wedge!C[EB]A (3!wedge!B,[DA]^G (3[CA] CD (3EEE {/=F/} (3EDC | 
[V:2] E,4E,,2 (3A,, A,B, (3!wedge!C!wedge!C!wedge!C (3CB,A, | 
[V:1] B4(3[FA]BA (3G G,A, (3B,B,B, {/C} (3B,A,G, & (3EB,B, (3B,CB,-B,2 (3E x xx4 | 
[V:2] G,4^D,2 (3:2:2E, B,,2B,,4 & x6(3x E,F, (3G,G,G, (3G,F,E, | 
[V:1] [^D4B4](3[FA]BA (3G GA (3BBB {/c/} (3BAG & (3B,B,B, (3B,CB,- B,2 (3E x xx4 | 
[V:2] [B,,,4B,,4][^D,,2^D,2] (3[E,,E,] EF (3GGG (3GFE | 
[V:1] (3[EGe] EF (3GGG {/A/} (3GFE (3[CEFc] CD (3EEE {/F/} (3EDC | 
[V:2] (3[C,C] CD (3EEE (3EDC (3[A,,A,] A,B, (3CCC (3CB,A, | 
[V:1] (3[B,EB] B,B, E2 ^D2 (3:2:15[G,E] ^a/b/g/e/ x ^d/e/B/G/ x ^A/B/G/E/ & x2 (3B,CB, (3A,B,A,x6 | 
[V:2] (3G,G,G, (3G,A,G, (3F,G,F, E, x {/^d} e x {/^A} B x & B,,2 B,,2 B,,2- B,, x x2 x2 | 
[V:1] (3^DFG (3AAA {/B/} (3AGF [|] 
[V:2] (3B, ^DE (3FFF (3FED & (3:2:2B,, B,2-B,4 [|] 
[V:1] (3:2:18g/a/^a/b/g/e/ ^c/d/^d/e/B/G/ ^G/A/^A/B/=G/E/ [I:setbarnb 88]| 
[V:2] G x {/^A} B x {/^F} G x & x4x2 | 
[V:1] (3^DFG (3AAA {/B} (3AGF (3[EGe] EF {/A/} (3GFE (3[CFc]GA | 
[V:2] (3[B,,B,] ^DE (3FFF (3FED (3[C,C] C=D (3EDC [A,,2A,2] | 
[V:1] (3[B,EB] G,A, {/C} (3B,A,G, (3[A,^D]B,A,z4!fermata!z2 | 
[V:2] (3G, E,F, (3G,F,E, (3F,G,F,z4!fermata!z2 & (3B,, x x B,,2 B,,2x4x2 | 
[V:1]  [K:E] DEGB [EBf]e[E4A4d4]c2 | 
[V:2]  [K:E] [E,,4E,4][G,,2G,2] A,,C,E,A,DC | 
[V:1] ^A,B,DF [A,=Dc]B[B,4D4A4]G,2 | 
[V:2] z4[B,,,2B,,2] E,,G,,B,,E,A,G, | 
[V:1] DEGB [EBf]e [EAd]c [CFB]A [A,CG]F | 
[V:2] z4[G,,2G,2][A,,4A,4]A,,2 | 
[V:1] [EGc]B [B,GB]E [A,DG]F [A,2D2F2][G,2B,2E2] z2 | 
[V:2] B,,4B,,,2 !wedge!E,,D,E,!wedge!^A,,B,,G,, | 
[V:1] (3:2:6B,C^EGFE !accent!=dc[C4F4B4]A2 | 
[V:2] [C,,6C,6]F,,A,,C,F,=CB, | 
[V:1] ^A,B, (3:2:6D/C/B,/F/E/D/ [A,Dc]B[A,4D4A4]G2 | 
[V:2] z4[B,,,2B,,2] E,,G,,B,,E,A,G, | 
[V:1] DE (3:2:9G/F/E/B/A/G/ !arpeggio![EBg]fe [EAd]c [CFB]A [A,CG]F | 
[V:2] z4[G,,2G,2][G,,4G,4]A,,2 | 
[V:1] [EGc]B, [B,GB]E [A,DG]F [G,B,F]E C [ce][Bd][Ac] | 
[V:2] B,,4B,,,2 E,,2A,,4 | 
[V:1] [Ac][GB] ^D,A[B,FB]A [B,EA]G C,F[A,CG]F | 
[V:2] B,,2B,,,2 [D,,2D,2] [E,,2E,2]A,,4 | 
[V:1] [G,B,F]E B,,[Begb]!accent![Begc'][Begb] [F,A,E]D B,,[Adfb]!accent![Adf=c']!fermata![Adfb] ||  
[V:2] B,,2B,,,4B,,2 B,,,2 z2 ||  
[V:1]  [K:C] [E,2G,2C2]>E2Gc egf'e'd'c' | 
[V:2]  [K:C] [C,,2C,2] [C,2E,2G,2C2][C,2E,2G,2C2] [C,2E,2G,2C2][C,2E,2G,2C2][C,2E,2G,2C2] | 
[V:1] !accent!b6a4z2 | 
[V:2] F,,2 [F,2A,2C2D2][F,2A,2C2D2] [F,2A,2C2D2][F,2A,2C2D2][F,2A,2C2D2] | 
[V:1] !turn!G2>G2Bd fedagf | 
[V:2] G,,2 [G,2B,2D2F2][G,2B,2D2F2] [G,2B,2D2F2][G,2B,2D2F2][G,2B,2D2F2] | 
[V:1] f6e4z2 | 
[V:2] A,,2 [A,2C2E2][A,2C2E2] [A,2C2E2][A,2C2E2][A,2C2E2] | 
[V:1] !accent!f5e!accent!e5^d | 
[V:2] G,,2 [G,2_B,2^C2E2][G,2B,2C2E2] ^F,,2 [^F,2A,2=C2^D2][F,2A,2C2D2] | 
[V:1] !accent!f5e=d5c | 
[V:2] ^G,,2 [^G,2B,2=D2E2][G,2B,2D2E2] A,,2 [A,2C2E2][A,2C2E2] | 
[V:1] c5BA5G | 
[V:2] ^D,,2 [^D,2F,2A,2B,2][D,2F,2A,2B,2] E,,2 [E,2G,2B,2][E,2G,2B,2] | 
[V:1] A5G^F5E | 
[V:2] C,,2 [C,2E,2G,2][C,2E,2G,2] C,,2 [C,2E,2^A,2][C,2E,2A,2] | 
[V:1] ^c4B2!accent!=c'4b2 ||  
[V:2] B,,,2 [B,2^G2][B,2G2] A,,2 [A,2^D2^F2][A,2D2F2] ||  
[V:1]  [K:E] f'4e'2 d'c'^bc'af | 
[V:2]  [K:E] G,,2 [G,2B,2E2][G,2B,2E2] A,,2 [A,2C2^E2][A,2C2F2][K:clef=treble] | 
[V:1] (3:2:6bBbBbB(3bBb (3:2:6BbBbBb(3BbB | 
[V:2] [B,4E4G4][B,2E2G2] [B,2D2F2][B,2E2G2][B,2D2A2] | 
[V:1] (3:2:6e'ee'ee'e(3e'ee' (3:2:6ee'ee'ee'(3ee'e | 
[V:2] [E2G2] (3z [Ac][Bd](3[ce][Bd][Ac] [G2B2] (3z [FA][GB](3[Ac][GB][FA] | 
[V:1] (3:2:6e'ee'ee'e(3e'ee' (3:2:6ee'ee'ee' (3bBb | 
[V:2] [E2G2] (3z [A,F][B,G](3[CA][B,G][A,F] [G,2E2] z2[K:clef=bass] [B,,2F,2A,2] | 
[V:1] [B2g2] (3z ef(3gfe !arpeggio![EAd]>c (3z fg(3agf | 
[V:2] (3:2:6E,,G,,B,,E,G,B, (3EFG (3:2:6A,,C,E,A,C^E (3FGA | 
[V:1] e>d (3z bb(3b^a=a (3gb[ee'] (3!trill!c'{/bc'}[c'a'][af'] (3[ge'][af'][fd'] | 
[V:2] (3:2:6B,,D,F,B,[K:clef=treble]DF (3Bcd e>G,[K:clef=bass] A,>!trill!A, B,3/B,,/ | 
[V:1] [ege'] EGB [EBe]d!arpeggio![E4A4d4]c2 | 
[V:2] E,4[G,,2G,2] A,,C,E,A,!accent!DC | 
[V:1] ^A,B,DF [=A,Dc]B[B,4D4A4]G2 | 
[V:2] z4[B,,2B,2] E,,G,,B,,E,A,G, | 
[V:1] DEGB [EBf]e [EAd]c [CFB]A [A,CG]F | 
[V:2] z4[G,,2G,2][A,,4A,4]A,,2 | 
[V:1] [EGc]B [B,GB]E [A,DG]F [A,2D2F2][G,2B,2E2] z2 | 
[V:2] B,,4B,,,2 !wedge!E,,D,E,!wedge!^A,,B,,G,, | 
[V:1] (3:2:18B,/C/^E/G/F/E/ B/A/G/d/c/B/ g/f/^e/=d/c/B/B4A2 | 
[V:2] [C,,6C,6]F,,A,,C,F,=CB, | 
[V:1] (3:2:18z/ ^A,/B,/D/C/B,/ F/E/D/A/G/F/ =a/f/d/B/c/A/^^F4G2 | 
[V:2] [B,,,6B,,6]E,,G,,B,,E,A,G, | 
[V:1] (3:2:36D/E/B/^^F/G/e/ ^A/B/b/=a/g/f/ e/d/c/B/A/G/ ^E/F/A/c/f/g/ a/A/c/f/a/c'/ {/fg} a'/g'/f'/e'/d'/c'/ | 
[V:2] [G,,4G,4][G,2B,2E2][A,,4A,4][A,2C2F2] | 
[V:1] (3:2:18!wedge!b/!wedge!a/!wedge!g/!wedge!f/!wedge!e/!wedge!d/ c/B/A/G/F/E/ D/C/B,/A,/G,/F,/ E,2 C,[ce][Bd][Ac] | 
[V:2] [B,,2B,2][K:clef=treble] [B,2E2G2][K:clef=bass] [B,,2F,2A,2] E,,2A,,4 | 
[V:1] [Ac][GB] D,A[B,FB]A [B,EA]G C,F[A,CG]F | 
[V:2] B,,2B,,,2 [D,,2D,2] [E,,2E,2]A,,4 | 
[V:1] [G,B,F]E B,,[Adfb][Adf=c'][Adfb] (3:2:2[Beg]d' (9:8:3e'//b//g// e x (3:2:2x D (9:8:3E//B,//G,// | 
[V:2] B,,2B,,,4E,,2 (3:2:2x d (9:8:3e//B//G// E z | 
[V:1] E, z z2 !arpeggio![e2g2b2e'2] (3:2:2z ^d' (9:8:3e'//=c'//a// e z (3:2:2z D (9:8:3E//=C//A,// | 
[V:2] (3:2:2z D, (9:8:3E,//B,,//G,,// (3:2:12E,,/G,,/B,,/=D,/G,/B,/[K:clef=treble] =D/G/B/=d/B/G/ E z (3:2:2z d (9:8:3e//=c//A// (3E x x[K:clef=bass] | 
[V:1] E, z z2 !arpeggio![e2a2=c'2e'2] [|] 
[V:2] (3:2:2x D, (9:8:3E,//=C,//A,,// (3:2:12E,,/A,,/C,/E,/A,/=C/[K:clef=treble] E/A/=c/e/c/A/ [|] 
[V:1] (3:2:2z ^^c' (9:8:3d'//=c'//a// (3:2:5f x x x ^^C (9:8:3D//=C//A,// [I:setbarnb 127]| 
[V:2] [K:clef=bass]G,, x (3:2:2x ^^c (9:8:3d//=c//A// (3E x x | 
[V:1] F, x (3:2:9F,/A,/=C/D/F/A/ =c/d/f/a/[A,/D/] [G,2E2]>[A,2D2][G,E][A,D] | 
[V:2] (3:2:2z ^^C, (9:8:3D,//=C,//A,,//E,,4[E,,2E,2][E,,2E,2][E,,2E,2] | 
[V:1] [G,2E2]>[A,2C2][G,B,][A,C][G,6B,6]- | 
[V:2] [E,,2E,2][E,,2E,2][E,,2E,2][E,,6E,6]- | 
[V:1] !fermata![G,12B,12] |]  
[V:2] !fermata![E,,12E,12] |]  


